X:1
T:In the Bleak Midwinter
T:In the Bleak Midwinter
T:Gustav T. Holst
T:Christina Rossertti
T:public domain
T:public domain
C:Gustav T. Holst
Z:Christina Rossertti
Z:public domain
%%score [ 1 2 3 4 ]
L:1/8
M:4/4
K:F
V:1 treble nm="Soprano" snm="S."
V:2 treble nm="Alto" snm="A."
V:3 bass nm="Tenor" snm="T."
V:4 bass nm="Bass" snm="B."
V:1
 z2 z2 z2 A2 | z2 z2 z2 A2 | A3 B c2 A2 | G4 F2 z2 | G3 A G2 D2 | G6 z2 | A3 B c2 A2 | G3 G F2 z2 | %8
w: ||In the bleak mid-|win- ter,|frost- y wind made|moan.|earth stood hard as|i- * ron|
w: |Our|God, heaven can- not|hold him,|nor- * earth sus-|tain;|heaven and earth shall|flee a- way|
w: ||An- gels and arch-|an- gels|may have gath- ered|there,|cher- u- bim and|ser- a- phim|
w: ||What * can I|give him,|poor * as I|am?|If I were a|shep * herd,|
 G2 A2 G3 F | F6 z2 | B3 A B2 c2 | d2 d2 A2 A2 | c2 A2 G2 F2 | E6 A2 | A3 B c2 A2 | G4 F2 z2 | %16
w: wa- ter like a|stone;|snow had fall- en,|snow on snow, *|snow * on *|snow. *|in the bleak mid-|win- ter,|
w: when he comes to|reign;|in the bleak mid-|win- * ter a|sta- ble place suf-|ficed the|Lord * God in-|car- nate,|
w: thronged * * the|air|but his moth- er|on * ly, *|in her maid- en|bliss, *|wor- shipped the Be-|lov- ed|
w: I would bring a|lamb;|if I were a|wise * man, *|I would do my|part; yet|what I can I|give him:|
 G2 A2 G3 F | F8 |] %18
w: long * * a-|go.|
w: Je * * sus|Christ.|
w: with * * a|kiss.|
w: give * * my|heart.|
V:2
 z2 z2 F2 z2 | z2 z2 z2 F2 | F3 F F2 C2 | D4 D2 z2 | D3 D D2 D2 | B,6 z2 | C3 F F2 C2 | %7
 D3 D D2 z2 | F2 F2 E3 F | F6 z2 | F3 F F2 _E2 | D2 D2 F2 F2 | F2 E2 D2 D2 | C6 C2 | C3 F F2 C2 | %15
 D4 D2 z2 | F4 E3 F | F8 |] %18
V:3
 z2 C2 z4 | z2 z2 z2 C2 | C3 C C2 F,2 | A,4 A,2 z2 | F,3 D, D,2 F,2 | F,4 E,2 z2 | F,3 C C2 F,2 | %7
 A,3 A, A,2 z2 | D2 D2 B,3 A, | A,6 z2 | B,3 C B,2 A,2 | B,2 B,2 A,2 A,2 | F,2 C2 B,2 A,2 | %13
 G,6 F,2 | F,3 C C2 F,2 | A,4 A,2 z2 | D4 B,3 A, | A,8 |] %18
V:4
 F,2 z2 z4 | z2 z2 z2 F,2 | F,3 G, A,2 F,2 | D,4 D,2 z2 | B,,3 C, B,,2 A,,2 | G,,4 C,2 z2 | %6
 F,3 G, A,2 F,2 | D,3 D, D,2 z2 | B,,2 B,,2 C,3 F, | F,6 z2 | D,3 F, D,2 C,2 | B,,2 B,,2 D,2 D,2 | %12
 A,,2 A,,2 B,,2 B,,2 | C,6 F,2 | F,3 G, A,2 F,2 | D,4 D,2 z2 | B,,4 C,3 F, | F,8 |] %18

